icon-svg/pedestal.svg

<svg xmlns="http://www.w3.org/2000/svg" viewBox="0 0 24 24"><path fill="#44739e" d="M18.278 3.628c0-.233-1.628-1.395-5.813-1.628a35.5 35.5 0 0 0-6.976.7h-.232v1.16l2.325 9.068a4.83 4.83 0 0 0 2.325 1.4 10.6 10.6 0 0 1-.464 4.65q-1.395.348-1.395 1.394c0 1.163 1.859 1.628 3.719 1.628s3.72-.465 3.72-1.628c0-.7-.7-1.162-1.394-1.394a10.6 10.6 0 0 1-.465-4.65c2.324-.466 2.557-.466 2.557-.7s1.628-5.813 2.558-9.069ZM8.98 5.022l.465 4.65-1.628-.929-.93-4.417Zm-.465 6.743-.465-1.86 1.395.7.231 1.86Zm2.324 1.163-.232-2.325 4.65-.465-.465 2.325Zm4.65-3.72-4.882.464-.467-4.65 6.51-.465Z"/></svg>

<?xml version="1.0" encoding="UTF-8"?>
<svg width="24px" height="24px" viewBox="0 0 24 24" version="1.1" fill="#44739e" xmlns="http://www.w3.org/2000/svg" xmlns:xlink="http://www.w3.org/1999/xlink">
            <path d="m 18.279,3.628 v 0 C 18.279,3.395 16.651,2.233 12.465,2 A 35.514,35.514 0 0 0 5.488,2.7 H 5.256 v 1.16 l 2.325,9.07 v 0 a 4.831,4.831 0 0 0 2.326,1.4 10.616,10.616 0 0 1 -0.465,4.651 q -1.395,0.348 -1.395,1.395 c 0,1.163 1.86,1.628 3.72,1.628 1.86,0 3.721,-0.465 3.721,-1.628 0,-0.7 -0.7,-1.163 -1.395,-1.395 A 10.616,10.616 0 0 1 13.628,14.33 c 2.325,-0.466 2.558,-0.466 2.558,-0.7 0,-0.234 1.628,-5.814 2.558,-9.07 v 0 z M 8.979,5.023 9.444,9.674 7.816,8.744 6.886,4.326 Z m -0.465,6.744 -0.465,-1.86 1.395,0.7 0.232,1.86 z m 2.325,1.163 -0.232,-2.325 4.651,-0.465 -0.465,2.325 z M 15.49,9.209 10.607,9.674 10.14,5.023 16.651,4.558 Z"></path>

</svg>
